X: 132
T:Missa Hercules dux Ferrarie / Gloria
N: Derived from Jos1101b-Missa_Hercules_dux_Ferrarie-Gloria.krn
C: Josquin des Prez
%%abc-version 2.0
%%abcx-abcm2ps-target-version 5.9.1 (29 Sep 2008)
%%abc-creator hum2abc beta
%%abcx-conversion-date 2019/02/12 16:15:44
%%abc-edited-by Jesse Rodin
%%abc-edited-by Jesse Rodin; Victoria Chang 2011/09/10
%%abcx-initial-encoding-date 2011/09/10/
%%humdrum-veritas 2375406691
%%humdrum-veritas-data 3465911542
%%linebreak <none>
%%barnumbers 0
L: 1/4
M: 2/1
Q: 1/2=120
%%staves [1 2 3 4]
V: 1 clef=treble
V: 2 clef=treble-8
V: 3 clef=treble-8
V: 4 clef=bass
K: C
[V:1] z4A4 | 
[V:2] d4d4 | 
[V:3] z8 | 
[V:4] z8 | 
[V:1] A4c4 | 
[V:2] f4e4 | 
[V:3] z8 | 
[V:4] z8 | 
[V:1] B4A4- | 
[V:2] d6c2 | 
[V:3] z8 | 
[V:4] z8 | 
[V:1] A2G2A2F2 | 
[V:2] d2B2A2d2 | 
[V:3] z8 | 
[V:4] z8 | 
[V:1] E2A2B2G2 | 
[V:2] e2c2d2B2 | 
[V:3] z8 | 
[V:4] z8 | 
[V:1] A2F2E4 | 
[V:2] A2d2e2c2 | 
[V:3] z8 | 
[V:4] z4A,,4 | 
[V:1] D4z2D2 | 
[V:2] d2f4ed | 
[V:3] z8 | 
[V:4] _B,,4B,,4 | 
[V:1] E4E4 | 
[V:2] c4z2c2 | 
[V:3] z8 | 
[V:4] A,,4z2A,,2 | 
[V:1] D4z2D2 | 
[V:2] d2D2F2D2 | 
[V:3] D8 | 
[V:4] _B,,2B,,2B,,2B,,2 | 
[V:1] E2E2E2E2 | 
[V:2] A4G2A2 | 
[V:3] C8 | 
[V:4] A,,4z2A,,2 | 
[V:1] D4z2D2 | 
[V:2] F2G3FD2 | 
[V:3] D8 | 
[V:4] _B,,2G,,2B,,4 | 
[V:1] E2C2E4 | 
[V:2] z2A2G2A2 | 
[V:3] C8 | 
[V:4] A,,4z2A,,2 | 
[V:1] D2F4ED | 
[V:2] F4G4 | 
[V:3] D8 | 
[V:4] _B,,2B,,2B,,2B,,2 | 
[V:1] C8 | 
[V:2] A3GABcd | 
[V:3] F8 | 
[V:4] A,,2F,,3G,,A,,_B,, | 
[V:1] z8 | 
[V:2] e2d3^c^cB | 
[V:3] E8 | 
[V:4] C,2D,2A,,4 | 
[V:1] z8 | 
[V:2] d8 | 
[V:3] D8 | 
[V:4] A,4_B,2A,2- | 
[V:1] A4_B2A2- | 
[V:2] z8 | 
[V:3] z8 | 
[V:4] A,2F,2G,2A,2 | 
[V:1] A2F2G2A2 | 
[V:2] z8 | 
[V:3] z8 | 
[V:4] F,3D,E,2D,2 | 
[V:1] F3DE2D2 | 
[V:2] z8 | 
[V:3] z8 | 
[V:4] z2D,2C,2D,2- | 
[V:1] z2D2C2D2- | 
[V:2] z8 | 
[V:3] z8 | 
[V:4] D,E,F,D,E,2D,2 | 
[V:1] DEFDE2D2 | 
[V:2] z2d2c2d2- | 
[V:3] z8 | 
[V:4] z8 | 
[V:1] z2A2G2A2- | 
[V:2] defde2d2 | 
[V:3] z8 | 
[V:4] z8 | 
[V:1] ABcAB2c2- | 
[V:2] z2A2G2A2- | 
[V:3] z8 | 
[V:4] z8 | 
[V:1] cBA3^GG^F | 
[V:2] ABcAB4 | 
[V:3] z8 | 
[V:4] z4E,4 | 
[V:1] A4z2A2 | 
[V:2] A2d2c2A2 | 
[V:3] A8 | 
[V:4] F,2D,2F,4 | 
[V:1] B2G2B4 | 
[V:2] e4d4 | 
[V:3] G8 | 
[V:4] E,4z2G,2 | 
[V:1] A4z2A2 | 
[V:2] z2d2c2A2 | 
[V:3] A8 | 
[V:4] F,2D,2F,4 | 
[V:1] B2G2B4 | 
[V:2] e4d4 | 
[V:3] G8 | 
[V:4] E,4z2G,2 | 
[V:1] A4z2A2 | 
[V:2] z2d2c2A2 | 
[V:3] A8 | 
[V:4] F,2D,2F,3E, | 
[V:1] G2A2c3B | 
[V:2] e4z2e2- | 
[V:3] c8 | 
[V:4] C,2A,,3B,,C,D, | 
[V:1] G2A3^GG^F | 
[V:2] e2d2e4 | 
[V:3] B8 | 
[V:4] E,2F,2E,4 | 
[V:1] A8 | 
[V:2] c2f2e2d2 | 
[V:3] A8 | 
[V:4] A,,2D,2C,2D,2- | 
[V:1] z2D2C2D2- | 
[V:2] f4e2d2 | 
[V:3] z8 | 
[V:4] D,E,F,G,A,2_B,2- | 
[V:1] DEFGA2_B2- | 
[V:2] f6e2 | 
[V:3] z8 | 
[V:4] B,A,A,4G,2 | 
[V:1] BAA4G2 | 
[V:2] c4d4 | 
[V:3] z8 | 
[V:4] A,2C2=B,4 | 
[V:1] A2c2=B4 | 
[V:2] e8 | 
[V:3] z8 | 
[V:4] A,4z2G,2 | 
[V:1] A4z2G2 | 
[V:2] z8 | 
[V:3] z8 | 
[V:4] A,2F,3D,E,2 | 
[V:1] A2F3DE2 | 
[V:2] z8 | 
[V:3] z8 | 
[V:4] F,2D,3B,,C,2 | 
[V:1] F2D3B,C2 | 
[V:2] z8 | 
[V:3] z8 | 
[V:4] D,E,F,G,E,D,A,2 | 
[V:1] DEFDE4 | 
[V:2] z4A4 | 
[V:3] z8 | 
[V:4] B,A,D3^CCB, | 
[V:1] D2d3cdB | 
[V:2] B2G2B4 | 
[V:3] d8 | 
[V:4] D4z2G,2 | 
[V:1] c2A3GEF | 
[V:2] A4z2A2 | 
[V:3] c8 | 
[V:4] A,2F,2A,4 | 
[V:1] GABcd2B2 | 
[V:2] B2G2B4 | 
[V:3] d8 | 
[V:4] G,4z2G,2 | 
[V:1] c2A3GEF | 
[V:2] A4z2A2 | 
[V:3] c8 | 
[V:4] A,2F,2A,4 | 
[V:1] GABcd2B2 | 
[V:2] B2G2B4 | 
[V:3] d8 | 
[V:4] G,4z2G,2 | 
[V:1] c2FGABc2- | 
[V:2] A2d2c2A2 | 
[V:3] f8 | 
[V:4] F,2D,2F,3E, | 
[V:1] cBG3A_B2- | 
[V:2] c3BG4- | 
[V:3] e8 | 
[V:4] C,3D,E,F,G,2- | 
[V:1] B2A2G4 | 
[V:2] G2A2_B4 | 
[V:3] d8- | 
[V:4] G,2F,2G,4 | 
[V:1] F8 ||  
[V:2] A8 ||  
[V:3] d8 ||  
[V:4] D,8 ||  
[V:1]  [K:C] [K:clef=treble][M:2/1]z8 | 
[V:2]  [K:C] [K:clef=treble-8][M:2/1]A4_B2A2- | 
[V:3]  [K:C] [K:clef=treble-8][M:2/1]z8 | 
[V:4]  [K:C] [K:clef=bass][M:2/1]D,8 | 
[V:1] z8 | 
[V:2] A2GFE4 | 
[V:3] z8 | 
[V:4] C,4C,4 | 
[V:1] z8 | 
[V:2] D2A2_B2A2- | 
[V:3] z8 | 
[V:4] D,3C,D,E,F,2- | 
[V:1] z8 | 
[V:2] A2GFE4 | 
[V:3] z8 | 
[V:4] F,2E,D,^C,D,E,C, | 
[V:1] z2A2_B2A2- | 
[V:2] D4d4 | 
[V:3] z8 | 
[V:4] D,8 | 
[V:1] A2GFE4 | 
[V:2] c4c4 | 
[V:3] z8 | 
[V:4] z8 | 
[V:1] D2A2_B2A2- | 
[V:2] d3cdef2- | 
[V:3] z8 | 
[V:4] z8 | 
[V:1] A2GFE4 | 
[V:2] f2ed^cde^c | 
[V:3] z8 | 
[V:4] z8 | 
[V:1] D4z4 | 
[V:2] d8 | 
[V:3] D8 | 
[V:4] A,4_B,2A,2- | 
[V:1] z8 | 
[V:2] z8 | 
[V:3] C8 | 
[V:4] A,2G,F,E,4 | 
[V:1] z8 | 
[V:2] z8 | 
[V:3] D8 | 
[V:4] D,2A,2_B,2A,2- | 
[V:1] z8 | 
[V:2] z8 | 
[V:3] C8 | 
[V:4] A,2G,F,E,4 | 
[V:1] z4A4- | 
[V:2] z2d4d2 | 
[V:3] D8 | 
[V:4] D,4z2D,2- | 
[V:1] A2A2A4 | 
[V:2] d2d2d2A2 | 
[V:3] F8 | 
[V:4] D,2D,2D,2D,2 | 
[V:1] G2G2G2G2 | 
[V:2] B2G2B2c2 | 
[V:3] E8 | 
[V:4] G,2E,2G,2C,2 | 
[V:1] F2DEFGA2 | 
[V:2] d4d3B | 
[V:3] D8 | 
[V:4] F,3G,A,2D,2 | 
[V:1] D2G4E2 | 
[V:2] B3GG3E | 
[V:3] z8 | 
[V:4] G,3E,E,2C,2- | 
[V:1] E3CC3A, | 
[V:2] E4z2e2- | 
[V:3] z8 | 
[V:4] C,2A,,2A,,4 | 
[V:1] A,4z4 | 
[V:2] e2c2d2e2 | 
[V:3] z8 | 
[V:4] z2A,2F,2G,2 | 
[V:1] z8 | 
[V:2] A2z2A2B2 | 
[V:3] z8 | 
[V:4] A,2D,2z2D,2 | 
[V:1] z8 | 
[V:2] c2d2B3G | 
[V:3] z8 | 
[V:4] E,2F,2G,2E,2- | 
[V:1] z8 | 
[V:2] G2z2G2A2 | 
[V:3] z8 | 
[V:4] E,C,C,2z2C,2 | 
[V:1] z8 | 
[V:2] B2c2A2B2 | 
[V:3] z8 | 
[V:4] D,2E,2F,2D,2 | 
[V:1] z8 | 
[V:2] c2d2e2AB | 
[V:3] z8 | 
[V:4] E,2F,2G,2A,2- | 
[V:1] z8 | 
[V:2] cde4d2 | 
[V:3] A8 | 
[V:4] A,G,F,E,F,4 | 
[V:1] z2G2G2G2 | 
[V:2] e2c2B4 | 
[V:3] G8 | 
[V:4] E,4z2E,2 | 
[V:1] C2F3GA2 | 
[V:2] z2d3cA2 | 
[V:3] A8 | 
[V:4] F,2D,3E,F,2 | 
[V:1] D2E3FG2 | 
[V:2] B2c3BG2 | 
[V:3] G8 | 
[V:4] G,2C,3D,E,2 | 
[V:1] C2F3GA2- | 
[V:2] z2d2c2f2 | 
[V:3] A8 | 
[V:4] F,2D,2F,3G, | 
[V:1] ABc4BA | 
[V:2] e2ABcde2 | 
[V:3] c8 | 
[V:4] A,4z2A,,2 | 
[V:1] G4z2G2 | 
[V:2] z2e2d2e2 | 
[V:3] B8 | 
[V:4] E,3F,G,2E,2 | 
[V:1] A2F2A3G | 
[V:2] c2d2A2c2- | 
[V:3] A8 | 
[V:4] F,2D,2F,3G, | 
[V:1] E2A,B,CDEF | 
[V:2] cde2A2c2- | 
[V:3] z8 | 
[V:4] A,4z2A,,2 | 
[V:1] G3FD2G2 | 
[V:2] cBGAB2c2 | 
[V:3] z8 | 
[V:4] E,3F,G,2E,2 | 
[V:1] C2F3GA2 | 
[V:2] A2d3cA2- | 
[V:3] z8 | 
[V:4] F,2D,2F,3G, | 
[V:1] E2A,B,CDEF | 
[V:2] ABcde2c2 | 
[V:3] z8 | 
[V:4] A,4z2A,,2 | 
[V:1] G3AB2A2- | 
[V:2] B2e3df2- | 
[V:3] z8 | 
[V:4] E,3F,G,2D,2 | 
[V:1] A2GFE4 | 
[V:2] f2ed^cde^c | 
[V:3] z8 | 
[V:4] F,3G,A,4 | 
[V:1] z2D2A2B2 | 
[V:2] [M:6/2](3d2f2e2(3d3cB2 | 
[V:3] z8 | 
[V:4] D,4z2G,2 | 
[V:1] c3BA2G2 | 
[V:2] (3:2:4A6z2z2e2 | 
[V:3] z8 | 
[V:4] A,3G,F,2E,2 | 
[V:1] F2D2A2B2 | 
[V:2] (3:2:5f4e2d3cB2 | 
[V:3] d8 | 
[V:4] D,4z2G,2 | 
[V:1] c3BA2G2 | 
[V:2] (3:2:4A6z2z2e2 | 
[V:3] c8 | 
[V:4] A,3G,F,2E,2 | 
[V:1] F2D2A2B2 | 
[V:2] (3:2:5f4e2d3cB2 | 
[V:3] d8 | 
[V:4] D,4z2G,,2 | 
[V:1] c3BG2A2 | 
[V:2] [M:2/1]A3GE2F2- | 
[V:3] c8 | 
[V:4] A,,3B,,C,2F,,2 | 
[V:1] z2F3G_B2 | 
[V:2] FDD3EG2 | 
[V:3] d8 | 
[V:4] _B,,3C,D,2G,,2 | 
[V:1] z2A3_Bd2 | 
[V:2] FDF3G_B2 | 
[V:3] f8 | 
[V:4] D,3E,F,2_B,,2 | 
[V:1] c3_BG2A2 | 
[V:2] z2G3Ac2 | 
[V:3] e8 | 
[V:4] C,3D,E,2A,,2 | 
[V:1] z2F3G_B2 | 
[V:2] _B3AF2G2 | 
[V:3] d8- | 
[V:4] _B,,3C,D,2G,,2 | 
[V:1] A2F2_B4 | 
[V:2] z2D3EG2 | 
[V:3] d8- | 
[V:4] D,4G,,4 | 
[V:1] A4D3E | 
[V:2] z2F3G_B2 | 
[V:3] d8- | 
[V:4] D,8- | 
[V:1] F8- | 
[V:2] A2F2_B4 | 
[V:3] d8- | 
[V:4] D,8- | 
[V:1] F8 |]  
[V:2] A8 |]  
[V:3] d8 |]  
[V:4] D,8 |]  



